_includes/icons/ios-trash-can.svg

<svg fill="#666" height="50" viewBox="0 0 50 50" width="50" xmlns="http://www.w3.org/2000/svg"><path d="m21 2c-1.645455 0-3 1.3545455-3 3v2h-7.845703a1.0001 1.0001 0 0 0 -.169922-.0136719 1.0001 1.0001 0 0 0 -.1445312.0136719h-1.8398438a1.0001 1.0001 0 1 0 0 2h1v36c0 1.645455 1.354545 3 3 3h26c1.645455 0 3-1.354545 3-3v-36h1a1.0001 1.0001 0 1 0 0-2h-1.832031a1.0001 1.0001 0 0 0 -.326172 0h-7.841797v-2c0-1.6454545-1.354545-3-3-3zm0 2h8c.554545 0 1 .4454545 1 1v2h-10v-2c0-.5545455.445455-1 1-1zm-10 5h7.832031a1.0001 1.0001 0 0 0 .326172 0h11.673828a1.0001 1.0001 0 0 0 .326172 0h7.841797v36c0 .554545-.445455 1-1 1h-26c-.554545 0-1-.445455-1-1zm7.984375 4.986328a1.0001 1.0001 0 0 0 -.984375 1.013672v25a1.0001 1.0001 0 1 0 2 0v-25a1.0001 1.0001 0 0 0 -1.015625-1.013672zm6 0a1.0001 1.0001 0 0 0 -.984375 1.013672v25a1.0001 1.0001 0 1 0 2 0v-25a1.0001 1.0001 0 0 0 -1.015625-1.013672zm6 0a1.0001 1.0001 0 0 0 -.984375 1.013672v25a1.0001 1.0001 0 1 0 2 0v-25a1.0001 1.0001 0 0 0 -1.015625-1.013672z"/></svg>

<svg xmlns="http://www.w3.org/2000/svg" viewBox="0 0 50 50" width="50" height="50" fill="#666"><path style="line-height:normal;text-indent:0;text-align:start;text-decoration-line:none;text-decoration-style:solid;text-decoration-color:#000;text-transform:none;block-progression:tb;isolation:auto;mix-blend-mode:normal" d="M 21 2 C 19.354545 2 18 3.3545455 18 5 L 18 7 L 10.154297 7 A 1.0001 1.0001 0 0 0 9.984375 6.9863281 A 1.0001 1.0001 0 0 0 9.8398438 7 L 8 7 A 1.0001 1.0001 0 1 0 8 9 L 9 9 L 9 45 C 9 46.645455 10.354545 48 12 48 L 38 48 C 39.645455 48 41 46.645455 41 45 L 41 9 L 42 9 A 1.0001 1.0001 0 1 0 42 7 L 40.167969 7 A 1.0001 1.0001 0 0 0 39.841797 7 L 32 7 L 32 5 C 32 3.3545455 30.645455 2 29 2 L 21 2 z M 21 4 L 29 4 C 29.554545 4 30 4.4454545 30 5 L 30 7 L 20 7 L 20 5 C 20 4.4454545 20.445455 4 21 4 z M 11 9 L 18.832031 9 A 1.0001 1.0001 0 0 0 19.158203 9 L 30.832031 9 A 1.0001 1.0001 0 0 0 31.158203 9 L 39 9 L 39 45 C 39 45.554545 38.554545 46 38 46 L 12 46 C 11.445455 46 11 45.554545 11 45 L 11 9 z M 18.984375 13.986328 A 1.0001 1.0001 0 0 0 18 15 L 18 40 A 1.0001 1.0001 0 1 0 20 40 L 20 15 A 1.0001 1.0001 0 0 0 18.984375 13.986328 z M 24.984375 13.986328 A 1.0001 1.0001 0 0 0 24 15 L 24 40 A 1.0001 1.0001 0 1 0 26 40 L 26 15 A 1.0001 1.0001 0 0 0 24.984375 13.986328 z M 30.984375 13.986328 A 1.0001 1.0001 0 0 0 30 15 L 30 40 A 1.0001 1.0001 0 1 0 32 40 L 32 15 A 1.0001 1.0001 0 0 0 30.984375 13.986328 z"/></svg>
